X:0046
T:The Millers Rant.
M:6/8
L:1/8
Q:3/8=120
I: :: ::
Z:Jack Campin * www.campin.me.uk * 2009
K:A Dorian
a|cAA eAA|cBA  GAB|cAA eAA|dcB A2
a|cAA eAA|cBA  GAB|A2a e2c|dcB A2:|
B|G2g gdg|d^cd GAB|A2a aea|g2f e2
f|gag f2e|d^cd GAB|A2a e2c|dBG A2:|

